svgs/materials/action/flutter_dash.svg

<svg xmlns="http://www.w3.org/2000/svg" enable-background="new 0 0 24 24" height="24" viewBox="0 0 24 24" width="24"><rect fill="none" height="24" width="24"/><g><path d="M11.07,11.7c0.29-0.39,0.81-0.56,1.27-0.37c0.17,0.07,0.32,0.18,0.43,0.33c0.22,0.28,0.25,0.59,0.22,0.85 c-0.05,0.33-0.25,0.63-0.54,0.79c0,0-4.87,2.95-5.07,2.69S11.07,11.7,11.07,11.7z M22,10c0,2.5-1,3-1.5,3 c-0.23,0-0.44-0.1-0.62-0.26c-0.48,3.32-2.36,5.31-5.33,5.99c0.11,0.44,0.48,0.77,0.95,0.77l0,0h0.58c0.22,0,0.41,0.15,0.48,0.36 c0.17,0.52,0.66,1.02,1.02,1.32c0.25,0.21,0.24,0.59-0.03,0.78c-0.34,0.24-0.9,0.49-1.79,0.53c-0.18,0.01-0.35-0.07-0.45-0.22 C15.18,22.07,15,21.71,15,21.26c0-0.3,0.04-0.57,0.09-0.8c-0.78-0.16-1.39-0.78-1.55-1.56c-0.49,0.06-1,0.1-1.54,0.1 c-0.88,0-1.7-0.09-2.45-0.25C9.53,18.83,9.5,18.91,9.5,19c0,0.55,0.45,1,1,1l0,0h0.58c0.22,0,0.41,0.15,0.48,0.36 c0.17,0.52,0.66,1.02,1.02,1.32c0.25,0.21,0.24,0.59-0.03,0.78c-0.34,0.24-0.9,0.49-1.79,0.53c-0.18,0.01-0.35-0.07-0.45-0.22 C10.18,22.57,10,22.21,10,21.76c0-0.3,0.04-0.57,0.09-0.8C9.19,20.77,8.5,19.96,8.5,19c0-0.18,0.03-0.36,0.08-0.53 c-2.46-0.86-4.03-2.78-4.46-5.74C3.94,12.9,3.74,13,3.5,13C3,13,2,12.5,2,10c0-2.27,1.7-4.5,3-4.5c0.43,0,0.49,0.49,0.5,0.85 c1.28-1.78,3.26-3.02,5.55-3.29C11.25,2.1,12.13,1.5,13,1.5v1c0,0,0.33-0.5,1-0.5c0.67,0,1,0.5,1,0.5c-0.49,0-0.85,0.35-0.96,0.77 c1.82,0.48,3.39,1.59,4.46,3.08C18.51,5.99,18.57,5.5,19,5.5C20.3,5.5,22,7.73,22,10z M5,11c0,0.81,0.1,1.53,0.25,2.21 c0.18-0.69,0.46-1.33,0.83-1.92c-0.21-0.47-0.34-0.99-0.34-1.54C5.75,7.68,7.43,6,9.5,6c0.96,0,1.84,0.37,2.5,0.97 C12.66,6.37,13.54,6,14.5,6c2.07,0,3.75,1.68,3.75,3.75c0,0.55-0.12,1.07-0.34,1.54c0.37,0.59,0.66,1.24,0.84,1.94 C18.9,12.55,19,11.82,19,11c0-3.86-3.14-7-7-7C8.14,4,5,7.14,5,11z M17.98,15.29c0-0.1,0.02-0.19,0.02-0.29 c0-1.01-0.26-1.95-0.7-2.78c-0.69,0.78-1.68,1.28-2.8,1.28c-0.27,0-0.54-0.03-0.79-0.09c0.14-0.23,0.23-0.49,0.27-0.77 c0.01-0.07,0.01-0.13,0.02-0.19c0.17,0.03,0.33,0.05,0.5,0.05c1.52,0,2.75-1.23,2.75-2.75S16.02,7,14.5,7 c-0.67,0-1.32,0.25-1.83,0.72L12,8.32l-0.67-0.6C10.82,7.25,10.17,7,9.5,7C7.98,7,6.75,8.23,6.75,9.75c0,1.34,0.96,2.46,2.23,2.7 l-0.76,0.83c-0.6-0.22-1.12-0.59-1.53-1.05C6.26,13.06,6,14,6,15c0,0.08,0.01,0.15,0.01,0.24C7.13,17.06,9.14,18,12,18 C14.88,18,16.88,17.09,17.98,15.29z M16,9.75c0,0.97-0.67,1.75-1.5,1.75S13,10.72,13,9.75S13.67,8,14.5,8S16,8.78,16,9.75z M15.25,8.88c0-0.21-0.17-0.38-0.38-0.38S14.5,8.67,14.5,8.88s0.17,0.38,0.38,0.38S15.25,9.08,15.25,8.88z M11,9.75 c0,0.97-0.67,1.75-1.5,1.75S8,10.72,8,9.75S8.67,8,9.5,8S11,8.78,11,9.75z M10.25,8.88c0-0.21-0.17-0.38-0.38-0.38 S9.5,8.67,9.5,8.88s0.17,0.38,0.38,0.38S10.25,9.08,10.25,8.88z"/></g></svg>

<?xml version="1.0" encoding="UTF-8" standalone="no"?>
<svg
   enable-background="new 0 0 24 24"
   height="24"
   viewBox="0 0 24 24"
   width="24"
   version="1.1"
   id="svg8"
   sodipodi:docname="flutter_dash.svg"
   inkscape:version="1.2 (dc2aeda, 2022-05-15)"
   xmlns:inkscape="http://www.inkscape.org/namespaces/inkscape"
   xmlns:sodipodi="http://sodipodi.sourceforge.net/DTD/sodipodi-0.dtd"
   xmlns="http://www.w3.org/2000/svg"
   xmlns:svg="http://www.w3.org/2000/svg">
  <defs
     id="defs12" />
  <sodipodi:namedview
     id="namedview10"
     pagecolor="#ffffff"
     bordercolor="#000000"
     borderopacity="0.25"
     inkscape:showpageshadow="2"
     inkscape:pageopacity="0.0"
     inkscape:pagecheckerboard="0"
     inkscape:deskcolor="#d1d1d1"
     showgrid="false"
     inkscape:zoom="9.8333333"
     inkscape:cx="12.050847"
     inkscape:cy="12"
     inkscape:window-width="1309"
     inkscape:window-height="456"
     inkscape:window-x="0"
     inkscape:window-y="25"
     inkscape:window-maximized="0"
     inkscape:current-layer="svg8" />
  <path
     id="rect2"
     style="fill:none"
     d="M 0,0 H 24 V 24 H 0 Z" />
  <path
     d="m 11.07,11.7 c 0.29,-0.39 0.81,-0.56 1.27,-0.37 0.17,0.07 0.32,0.18 0.43,0.33 0.22,0.28 0.25,0.59 0.22,0.85 -0.05,0.33 -0.25,0.63 -0.54,0.79 0,0 -4.87,2.95 -5.07,2.69 -0.2,-0.26 3.69,-4.29 3.69,-4.29 z M 22,10 c 0,2.5 -1,3 -1.5,3 -0.23,0 -0.44,-0.1 -0.62,-0.26 -0.48,3.32 -2.36,5.31 -5.33,5.99 0.11,0.44 0.48,0.77 0.95,0.77 v 0 h 0.58 c 0.22,0 0.41,0.15 0.48,0.36 0.17,0.52 0.66,1.02 1.02,1.32 0.25,0.21 0.24,0.59 -0.03,0.78 -0.34,0.24 -0.9,0.49 -1.79,0.53 C 15.58,22.5 15.41,22.42 15.31,22.27 15.18,22.07 15,21.71 15,21.26 c 0,-0.3 0.04,-0.57 0.09,-0.8 C 14.31,20.3 13.7,19.68 13.54,18.9 13.05,18.96 12.54,19 12,19 11.12,19 10.3,18.91 9.55,18.75 9.53,18.83 9.5,18.91 9.5,19 c 0,0.55 0.45,1 1,1 v 0 h 0.58 c 0.22,0 0.41,0.15 0.48,0.36 0.17,0.52 0.66,1.02 1.02,1.32 0.25,0.21 0.24,0.59 -0.03,0.78 -0.34,0.24 -0.9,0.49 -1.79,0.53 C 10.58,23 10.41,22.92 10.31,22.77 10.18,22.57 10,22.21 10,21.76 c 0,-0.3 0.04,-0.57 0.09,-0.8 C 9.19,20.77 8.5,19.96 8.5,19 8.5,18.82 8.53,18.64 8.58,18.47 6.12,17.61 4.55,15.69 4.12,12.73 3.94,12.9 3.74,13 3.5,13 3,13 2,12.5 2,10 2,7.73 3.7,5.5 5,5.5 5.43,5.5 5.49,5.99 5.5,6.35 6.78,4.57 8.76,3.33 11.05,3.06 11.25,2.1 12.13,1.5 13,1.5 v 1 c 0,0 0.33,-0.5 1,-0.5 0.67,0 1,0.5 1,0.5 -0.49,0 -0.85,0.35 -0.96,0.77 1.82,0.48 3.39,1.59 4.46,3.08 0.01,-0.36 0.07,-0.85 0.5,-0.85 1.3,0 3,2.23 3,4.5 z M 5,11 c 0,0.81 0.1,1.53 0.25,2.21 C 5.43,12.52 5.71,11.88 6.08,11.29 5.87,10.82 5.74,10.3 5.74,9.75 5.75,7.68 7.43,6 9.5,6 10.46,6 11.34,6.37 12,6.97 12.66,6.37 13.54,6 14.5,6 c 2.07,0 3.75,1.68 3.75,3.75 0,0.55 -0.12,1.07 -0.34,1.54 0.37,0.59 0.66,1.24 0.84,1.94 C 18.9,12.55 19,11.82 19,11 19,7.14 15.86,4 12,4 8.14,4 5,7.14 5,11 Z m 12.98,4.29 C 17.98,15.19 18,15.1 18,15 18,13.99 17.74,13.05 17.3,12.22 16.61,13 15.62,13.5 14.5,13.5 c -0.27,0 -0.54,-0.03 -0.79,-0.09 0.14,-0.23 0.23,-0.49 0.27,-0.77 0.01,-0.07 0.01,-0.13 0.02,-0.19 0.17,0.03 0.33,0.05 0.5,0.05 1.52,0 2.75,-1.23 2.75,-2.75 C 17.25,8.23 16.02,7 14.5,7 13.83,7 13.18,7.25 12.67,7.72 L 12,8.32 11.33,7.72 C 10.82,7.25 10.17,7 9.5,7 7.98,7 6.75,8.23 6.75,9.75 c 0,1.34 0.96,2.46 2.23,2.7 L 8.22,13.28 C 7.62,13.06 7.1,12.69 6.69,12.23 6.26,13.06 6,14 6,15 6,15.08 6.01,15.15 6.01,15.24 7.13,17.06 9.14,18 12,18 c 2.88,0 4.88,-0.91 5.98,-2.71 z M 16,9.75 C 16,10.72 15.33,11.5 14.5,11.5 13.67,11.5 13,10.72 13,9.75 13,8.78 13.67,8 14.5,8 15.33,8 16,8.78 16,9.75 Z M 15.25,8.88 c 0,-0.21 -0.17,-0.38 -0.38,-0.38 -0.21,0 -0.37,0.17 -0.37,0.38 0,0.21 0.17,0.38 0.38,0.38 0.21,0 0.37,-0.18 0.37,-0.38 z M 11,9.75 C 11,10.72 10.33,11.5 9.5,11.5 8.67,11.5 8,10.72 8,9.75 8,8.78 8.67,8 9.5,8 10.33,8 11,8.78 11,9.75 Z M 10.25,8.88 C 10.25,8.67 10.08,8.5 9.87,8.5 9.66,8.5 9.5,8.67 9.5,8.88 c 0,0.21 0.17,0.38 0.38,0.38 0.21,0 0.37,-0.18 0.37,-0.38 z"
     id="path4" />
</svg>
